X:9919
T:Louis Waltz
C:Trad. French Canadian
I:speed 280
S:Aly Bain
M:3/4l
K:D
|:A3B A3G | F4 D3F A3d | f4 f3f e3f | g4 b3g f3g | 
B4 B3d c3B | A4 E3F G3A | c4 B4 A4 | F4 F3D F3B|
A4 A3B A3G | F4 D3F A3d | f8 e3f | g4 b3g f3g |
B4 B3d c3B | A4 E3F G3A | c4 B4 c4 | d4 d3A F3A|
D4 D3A B3A| G4 G3A B3A | c4 c3A G3A | F4 F3D F3A |
d4 c4 c4 | e8 e3f | e4 A4 A3G | F4 F3E F3G | 
F4 E4 F4 | G4 G3A B3A | c4 c3A B3A | F4 F3D F3A |
d4 c4 d4 | E8 E3F | G4 F4 E4 | D4 F4 A4 | d4||


